X:86
T:Major Mackie's Jig
M:6/8
L:1/8
K:D
FG |"D"ABc dcd | "Em"B2e e2d | "A7"c2a a^ga | "D"f2d d3 | 
"D"ABc dcd | "Em"B2e e2d | "A7"c2a gfe | "D"d3- d :|
|: de | "D"f2f def | "Em"g3 g2f | "A7"e2e cde | "D"f3 f2e | 
"Bm"d2d def | "Em"g2B e2d | "A7"c2a gfe | "D"d3- d :|]

%%newpage

